X:638
T:Anglais efter Erland Hansson
C:Trad
S:efter Erland Hansson
O:Skåne
Z:Patrik Månsson, 2008-10-08
N:Not från allspelslåtarna till Degeberga 2005
R:Anglais
M:2/4
L:1/16
K:G

|: A2A2 F2D2 | A2A2 F2D2 | d2d2 B2B2 | ABA2 G4 :| 
|: BABA G2G2 | BABA G2G2 | d2d2 B2B2 | ABA2 G4 :|


(:musicend:)

(:music:)
